X: 2
T: Simple Gifts
C: ?
R: song, air
O:
S: NEFFA 2022 set
Z: 2022 John Chambers <jc:trillian.mit.edu>
M: 4/4
L: 1/8
Q: 1/4=132
K: G
DD |\
"G"G2GA BGBc | "G/B"d2dc B2AG | "Am"A2A2 A2G2 | "D"ABAF D3D |
"G"GFGA B2AA | "G/B"B2c2 d3B | "Am"A2Bc B2AG | "D"A2GF "G"G4 ||
"Bm"d4 B3A | "Em"BcBA G3A | "G"B2Bc "C"d2B2 | "D"A2AB A2DD |
"G"G4 "D/F#"G3A | "Em"B2Bc d2cB | "Am"A2A2 "D"B2BA | "G"G2G2 G2 :|


